assets/icons/user/_.svg

<?xml version="1.0" encoding="UTF-8" standalone="no"?>
<svg viewBox="0 0 24 24" height="24" id="svg7384" version="1.1" width="24" sodipodi:docname="user.svg" inkscape:version="1.1 (ce6663b3b7, 2021-05-25)"
   xmlns:inkscape="http://www.inkscape.org/namespaces/inkscape"
   xmlns:sodipodi="http://sodipodi.sourceforge.net/DTD/sodipodi-0.dtd"
   xmlns="http://www.w3.org/2000/svg"
   xmlns:svg="http://www.w3.org/2000/svg"
   xmlns:rdf="http://www.w3.org/1999/02/22-rdf-syntax-ns#"
   xmlns:cc="http://creativecommons.org/ns#"
   xmlns:dc="http://purl.org/dc/elements/1.1/">
   <sodipodi:namedview id="namedview21" pagecolor="#ffffff" bordercolor="#666666" borderopacity="1.0" inkscape:pageshadow="2" inkscape:pageopacity="0.0" inkscape:pagecheckerboard="0" showgrid="true" inkscape:snap-page="true" inkscape:zoom="9.8990005" inkscape:cx="1.7678552" inkscape:cy="8.6372356" inkscape:window-width="1920" inkscape:window-height="1016" inkscape:window-x="0" inkscape:window-y="27" inkscape:window-maximized="1" inkscape:current-layer="svg7384">
      <inkscape:grid type="xygrid" id="grid1044" dotted="false" />
      <inkscape:grid type="xygrid" id="grid892" dotted="true" spacingx="0.5" spacingy="0.5" empspacing="10" />
   </sodipodi:namedview>
   <metadata id="metadata20854">
      <rdf:RDF>
         <cc:Work rdf:about="">
            <dc:format>image/svg+xml</dc:format>
            <dc:type rdf:resource="http://purl.org/dc/dcmitype/StillImage" />
         </cc:Work>
      </rdf:RDF>
   </metadata>
   <defs id="defs7386">
      <linearGradient id="linearGradient5606" inkscape:swatch="solid">
         <stop id="stop5608" offset="0" style="stop-color:#000000;stop-opacity:1;" />
      </linearGradient>
      <linearGradient id="linearGradient4526" inkscape:swatch="solid">
         <stop id="stop4528" offset="0" style="stop-color:#ffffff;stop-opacity:1;" />
      </linearGradient>
      <linearGradient id="linearGradient3600-4" inkscape:swatch="gradient">
         <stop id="stop3602-7" offset="0" style="stop-color:#f4f4f4;stop-opacity:1" />
         <stop id="stop3604-6" offset="1" style="stop-color:#dbdbdb;stop-opacity:1" />
      </linearGradient>
   </defs>
   <g id="layer2" style="display:inline;stroke-width:0.80002" transform="matrix(1.25,0,0,1.2499376,-937.99998,-522.97378)" />
   <g id="layer4" style="display:inline;stroke-width:0.80002" transform="matrix(1.25,0,0,1.2499376,-937.99998,-522.97378)" />
   <g id="g1812" style="display:inline;stroke-width:0.80002" transform="matrix(1.25,0,0,1.2499376,-937.99998,-522.97378)" />
   <g id="g6217" style="display:inline;stroke-width:0.80002" transform="matrix(1.25,0,0,1.2499376,-937.99998,-522.97378)" />
   <g id="layer3" style="display:inline;stroke-width:0.80002" transform="matrix(1.25,0,0,1.2499376,-937.99998,-522.97378)" />
   <g id="g1833" style="display:inline;stroke-width:0.80002" transform="matrix(1.25,0,0,1.2499376,-937.99998,-522.97378)" />
   <g id="layer1" style="display:inline;stroke-width:0.80002" transform="matrix(1.25,0,0,1.2499376,-937.99998,-522.97378)" />
   <path id="path56" style="color:#000000;fill:#808080;-inkscape-stroke:none" d="M 12 2 A 5 5.5 0 0 0 7 7.5 A 5 5.5 0 0 0 12 13 A 5 5.5 0 0 0 17 7.5 A 5 5.5 0 0 0 12 2 z M 12 3 A 4 4.5 0 0 1 16 7.5 A 4 4.5 0 0 1 12 12 A 4 4.5 0 0 1 8 7.5 A 4 4.5 0 0 1 12 3 z M 12 15 C 7.6094367 15.002 5.3171847 16.023091 4.140625 17.357422 C 2.9640653 18.691753 3 20.264081 3 21 L 4 21 C 4 20.23592 3.973868 19.059221 4.890625 18.019531 C 5.8073818 16.979842 7.7638461 16.001919 12 16 C 16.236005 15.9981 18.19262 16.975083 19.109375 18.015625 C 20.02613 19.056167 20 20.23592 20 21 L 21 21 C 21 20.264081 21.03594 18.690899 19.859375 17.355469 C 18.682813 16.020038 16.390712 14.998015 12 15 z " />
</svg>

<svg height="24" width="24" xmlns="http://www.w3.org/2000/svg"><path style="color:#000;fill:gray;-inkscape-stroke:none" d="M12 2a5 5.5 0 0 0-5 5.5 5 5.5 0 0 0 5 5.5 5 5.5 0 0 0 5-5.5A5 5.5 0 0 0 12 2zm0 1a4 4.5 0 0 1 4 4.5 4 4.5 0 0 1-4 4.5 4 4.5 0 0 1-4-4.5A4 4.5 0 0 1 12 3zm0 12c-4.39.002-6.683 1.023-7.86 2.357C2.965 18.692 3 20.264 3 21h1c0-.764-.026-1.94.89-2.98.917-1.04 2.874-2.018 7.11-2.02 4.236-.002 6.193.975 7.11 2.016.916 1.04.89 2.22.89 2.984h1c0-.736.036-2.31-1.14-3.645C18.682 16.02 16.39 14.998 12 15z"/></svg>
